!!!COM: Béla Bartók
!!!OTL: [T344_Bar-w43p11-12m87-101]
**kern	**dynam	**kern	**dynam	**kern	**dynam	**kern	**dynam
*grp:A	*grp:A	*grp:A	*grp:A	*grp:B	*grp:B	*grp:B	*grp:B
*part4	*part4	*part3	*part3	*part2	*part2	*part1	*part1
*staff4	*staff4	*staff3	*staff3	*staff2	*staff2	*staff1	*staff1
*I"Violoncello	*I"Violoncello	*I"Viola	*I"Viola	*I"Violin II	*I"Violin II	*I"Violin I	*I"Violin I
*I'Vc.	*	*I'Vla.	*	*I'Vln. II	*	*I'Vln. I	*
*clefF4	*	*clefC3	*	*clefG2	*	*clefG2	*
*k[]	*	*k[]	*	*k[]	*	*k[]	*
*C:	*	*C:	*	*C:	*	*C:	*
*M4/4	*	*M4/4	*	*M4/4	*	*M4/4	*
=1	=1	=1	=1	=1	=1	=1	=1
!	!LO:DY:ed=brack	!	!LO:DY:ed=brack	!	!	!LO:TX:t=[quarter]=128	!
8GG^^	f	8G^^	ff	2ryy	.	2ryy	.
4E 4B-X	.	4e 4b-X	.	.	.	.	.
8GG	.	8G	.	.	.	.	.
4E~ 4B-	.	4e~ 4b-	.	4ryy	.	4ryy	.
4GG~^^ 4E 4B-	.	4G~^^ 4e 4b-	.	20ryy	4ryy	20ryy	4ryy
.	.	.	.	20ryy	.	20ryy	.
.	.	.	.	20ryy	.	20ryy	.
.	.	.	.	20ryy	.	20ryy	.
.	.	.	.	20ryy	.	20ryy	.
=2	=2	=2	=2	=2	=2	=2	=2
8GG^^< 8G	.	8G	.	2ryy	.	2ryy	.
4E 4B-X	.	8r	.	.	.	.	.
=-	=-	=:	=:	=-	=-	=-	=-
.	.	8G 8g^^	.	.	.	.	.
8GG 8G	.	4e 4b-X	.	.	.	.	.
4E~ 4B-	.	.	.	8ryy	.	8ryy	.
.	.	8G 8g	.	8ryy	.	8ryy	.
4GG~^^ 4E 4B-	.	4e~ 4b-	.	8ryy	.	8ryy	.
.	.	.	.	8ryy	.	8ryy	.
=3	=3	=3	=3	=3	=3	=3	=3
8GG^^< 8G	.	4G~^^ 4e 4b-	.	2ryy	.	2ryy	.
.	.	.	.	.	.	.	.
4E 4B-X	.	.	.	.	.	.	.
=-	=-	=:	=:	=-	=-	=-	=-
.	.	8G^^ 8g	.	.	.	.	.
8GG 8G	.	4e 4b-X	.	.	.	.	.
*	*	*	*	*lig	*	*	*
!	!	!	!	!LO:TX:a:rj:t=IV	!	!	!
4E~ 4B-	.	.	.	20ryy	.	20ryy	.
.	.	.	.	20ryy	.	20ryy	.
.	.	.	.	20ryy	.	20ryy	.
.	.	8G 8g	.	.	.	.	.
.	.	.	.	20ryy	.	20ryy	.
.	.	.	.	20ryy	.	20ryy	.
4GG~^^ 4E 4B-	.	4e~ 4b-	.	4ryy	.	4ryy	.
!!LO:REH:t=90
=4	=4	=4	=4	=4	=4	=4	=4
8GG^^< 8G	.	4G~^^ 4e 4b-X	.	8ryy	.	8ryy	.
4E 4B-X	.	.	.	8ryy	.	8ryy	.
=-	=-	=:	=:	=-	=-	=-	=-
.	.	8G^^ 8g	.	8ryy	.	8ryy	.
8GG 8G	.	4e 4b-	.	8ryy	.	8ryy	.
4E~ 4B-	.	.	.	8ryy	.	8ryy	.
.	.	8G 8g	.	8ryy	.	8ryy	.
4GG~^^ 4E 4B-	.	4e~ 4b-	.	8ryy	.	8ryy	.
.	.	.	.	8ryy	.	8ryy	.
*	*	*	*	*Xlig	*	*	*
=5	=5	=5	=5	=5	=5	=5	=5
8GG^^< 8G	.	4G~^^ 4e 4b-X	.	8ryy	.	8ryy	.
4E 4B-X	.	.	.	8ryy	.	8ryy	.
=-	=-	=:	=:	=-	=-	=-	=-
.	.	8G^^ 8g	.	8ryy	.	8ryy	.
8GG 8G	.	4e 4b-	.	8ryy	.	8ryy	.
4E~ 4B-	.	.	.	8ryy	.	8ryy	.
.	.	8G 8g	.	4.ryy	.	4.ryy	.
4GG~^^ 4E 4B-	.	4e~ 4b-	.	.	.	.	.
=6	=6	=6	=6	=6	=6	=6	=6
8GG^^< 8G	.	4G~^^ 4e 4b-X	.	8ryy	.	8ryy	.
4E 4B-X	.	.	.	8ryy	.	8ryy	.
=-	=-	=:	=:	=-	=-	=-	=-
.	.	8G^^ 8g	.	8ryy	.	8ryy	.
8GG 8G	.	4e 4b-	.	8ryy	.	8ryy	.
4E~ 4B-	.	.	.	4ryy	.	4ryy	.
.	.	8G 8g	.	.	.	.	.
4GG~^^ 4E 4B-	.	4e~ 4b-	.	20ryy	.	20ryy	.
.	.	.	.	20ryy	.	20ryy	.
.	.	.	.	20ryy	.	20ryy	.
.	.	.	.	20ryy	.	20ryy	.
.	.	.	.	20ryy	.	20ryy	.
=7	=7	=7	=7	=7	=7	=7	=7
8GG^^< 8G	.	4G~^^ 4e 4b-X	.	2ryy	.	2ryy	.
4E 4B-X	.	.	.	.	.	.	.
=-	=-	=:	=:	=-	=-	=-	=-
.	.	8G^^ 8g	.	.	.	.	.
8GG 8G	.	4e 4b-	.	.	.	.	.
4E~ 4B-	.	.	.	8ryy	.	8ryy	.
.	.	8G 8g	.	8ryy	.	8ryy	.
4GG~^^ 4E 4B-	.	4e~ 4b-	.	8ryy	.	8ryy	.
.	.	.	.	8ryy	.	8ryy	.
=8	=8	=8	=8	=8	=8	=8	=8
8GG^^< 8G	.	4G~^^ 4e 4b-X	.	8ryy	.	8ryy	.
4E 4B-X	.	.	.	24ryy	.	24ryy	.
.	.	.	.	24ryy	.	24ryy	.
.	.	.	.	24ryy	.	24ryy	.
=-	=-	=:	=:	=-	=-	=-	=-
.	.	8G^^ 8g	.	2ryy	.	2ryy	.
8GG 8G	.	4e 4b-	.	.	.	.	.
4E~ 4B-	.	.	.	.	.	.	.
.	.	8G 8g	.	.	.	.	.
4GG~^^ 4E 4B-	.	4e~ 4b-	.	8ryy	.	8ryy	.
!	!	!	!	!LO:TX:t=P:problem:cross-bar beaming	!	!LO:TX:t=P:problem:cross-bar beaming	!
.	.	.	.	8ryy	.	8ryy	.
!!LO:REH:t=95
=9	=9	=9	=9	=9	=9	=9	=9
8GG^^< 8G	.	4G~^^ 4e 4b-X	.	8ryy	.	8ryy	.
4E 4B-X	.	.	.	8ryy	.	8ryy	.
=-	=-	=:	=:	=-	=-	=-	=-
.	.	8G^^ 8g	.	4ryy	.	4ryy	.
8GG 8G	.	4e 4b-	.	.	.	.	.
*	*	*	*	*	*	*lig	*
!	!	!	!	!	!	!LO:TX:a:rj:t=IV	!
4E~ 4B-	.	.	.	20ryy	.	20ryy	.
.	.	.	.	20ryy	.	20ryy	.
.	.	.	.	20ryy	.	20ryy	.
.	.	8G 8g	.	.	.	.	.
.	.	.	.	20ryy	.	20ryy	.
.	.	.	.	20ryy	.	20ryy	.
4GG~^^ 4E 4B-	.	4e~ 4b-	.	4ryy	.	4ryy	.
=10	=10	=10	=10	=10	=10	=10	=10
4GG~^^ 4E 4B-X	.	8G^^	.	8ryy	.	8ryy	.
.	.	4e~ 4b-X	.	8ryy	.	8ryy	.
8GG^^< 8G	.	.	.	4ryy	.	8ryy	.
4E~ 4B-	.	8G	.	.	.	20ryy	.
.	.	.	.	.	.	20ryy	.
.	.	.	.	.	.	20ryy	.
.	.	4e~ 4b-	.	4ryy	.	.	.
.	.	.	.	.	.	20ryy	.
.	.	.	.	.	.	20ryy	.
*	*	*	*	*	*	*Xlig	*
8GG 8G	.	.	.	.	.	8ryy	.
4GG~^^ 4E 4B-	.	8GL	.	20ryy	.	20ryy	.
.	.	.	.	20ryy	.	20ryy	.
.	.	.	.	20ryy	.	20ryy	.
.	.	8e~J 8b-	.	.	.	.	.
.	.	.	.	20ryy	.	20ryy	.
.	.	.	.	20ryy	.	20ryy	.
=11	=11	=11	=11	=11	=11	=11	=11
2r	.	2r	.	8ryy	.	8ryy	.
.	.	.	.	4ryy	.	4ryy	.
.	.	.	.	8ryy	.	8ryy	.
4r	.	4r	.	4ryy	.	4ryy	.
(20d-XLL	.	(20dd-XLL	.	4ryy	.	4ryy	.
20c	.	20cc	.	.	.	.	.
20dn	.	20ddn	.	.	.	.	.
20c#X	.	20cc#X	.	.	.	.	.
20d#XJJ)	.	20dd#XJJ)	.	.	.	.	.
=12	=12	=12	=12	=12	=12	=12	=12
[2e	.	[2ee	.	8ryy	.	8ryy	.
.	.	.	.	8ryy	.	4ryy	.
.	.	.	.	8ryy	.	.	.
.	.	.	.	4ryy	.	8ryy	.
8eL]	.	8eeL]	.	.	.	4ryy	.
(8dn	.	(8ddn	.	8ryy	.	.	.
8B)	.	8b)	.	4ryy	.	4ryy	.
8AJ	.	8aJ	.	.	.	.	.
=13	=13	=13	=13	=13	=13	=13	=13
8r	.	8r	.	8ryy	.	8ryy	.
(8AL	.	(8aL	.	8ryy	.	4ryy	.
8B)	.	8b)	.	8ryy	.	.	.
8dJ	.	8ddJ	.	4ryy	.	8ryy	.
(8eL	.	(8eeL	.	.	.	4ryy	.
8g)	.	8gg)	.	8ryy	.	.	.
8c#X	.	8cc#X	.	4ryy	.	4ryy	.
8d#XJ	.	8dd#XJ	.	.	.	.	.
!!LO:REH:t=100
=14	=14	=14	=14	=14	=14	=14	=14
(24B#XLL	.	(24b#XLL	.	4ryy	.	8ryy	.
24c#X	.	24cc#X	.	.	.	.	.
24d#XJJ	.	24dd#XJJ	.	.	.	.	.
[4.e	.	[4.ee	.	.	.	4ryy	.
=-	=-	=-	=-	=:	=:	=-	=-
.	.	.	.	8ryy	.	.	.
.	.	.	.	4ryy	.	8ryy	.
8e])	.	8ee])	.	.	.	4ryy	.
(8A#XL	.	(8a#XL	.	8ryy	.	.	.
8c#)	.	8cc#)	.	4ryy	.	4ryy	.
8d#J	.	8dd#J	.	.	.	.	.
=15	=15	=15	=15	=15	=15	=15	=15
8cn	.	8ccn	.	4ryy	.	8ryy	.
8r	.	8r	.	.	.	4ryy	.
=-	=-	=-	=-	=:	=:	=-	=-
(20cLL	.	(20ccLL	.	8ryy	.	.	.
20B	.	20b	.	.	.	.	.
20c#X	.	20cc#X	.	.	.	.	.
.	.	.	.	4ryy	.	8ryy	.
20dn	.	20ddn	.	.	.	.	.
20d#XJJ)	.	20dd#XJJ)	.	.	.	.	.
4r	.	4r	.	.	.	4ryy	.
.	.	.	.	8ryy	.	.	.
(20C#XLL	.	(20C#XLL	.	4ryy	.	8ryy	.
20BB#X	.	20Cn	.	.	.	.	.
20Dn	.	20Dn	.	.	.	.	.
.	.	.	.	.	.	8ryy	.
20C#	.	20C#X	.	.	.	.	.
20D#XJJ)	.	20D#XJJ)	.	.	.	.	.
=	=	=	=	=	=	=	=
*-	*-	*-	*-	*-	*-	*-	*-
!!!system-decoration: [(s1,s2,s3,s4)]
!!!RDF**kern: < = below
!!!RDF**kern: > = above
!!!EED: Kelsey Lussier
!!!EEV: 2021/07/20
!!!EED2: Gabriella Vici
!!!EEV2: 2022/02/03
